X:1
T:James Gibb editions
T:Il ballerino - Gastoldi
%%score [ 1 2 3 ]
L:1/8
Q:1/4=120
M:4/4
K:C
V:1 treble nm="Soprano" snm="S"
V:2 treble nm="Alto" snm="A"
V:3 bass nm="Bass" snm="B"
V:1
"^Il ballerino""^Giovanni Gastoldi\n(1560-1609)" c2 | c3 d e2 c2 | B3 c d2 B2 | A2 B2 c2 A2 | %4
w: So-|na- te- mi~~un bal-|let- to, Col mio~~a-|mor vo- glio dan-|
 B4 z2 :|[M:4/4] B2 | c2 B2 c2 d2 | e4 c4 | d2 e2 f2 d2 | e8 | z2 c2 BcdB | c2 AA ^G2 GG | %12
w: zar!|Ch'io|pren- do gran pia-|cer Nel|bal- lo a~~dir- vi~~il|ver,|Or- via, che sta- te~~a|far? Co- min- cia- te~~a so-|
 A2 e2 defd | e2 cc B2 BB | A6 |] %15
w: nar, Or- via che sta- te~~a|far? Co- min- cia- te~~a so-|nar.|
V:2
 e2 | e3 d c2 e2 | d3 c B2 d2 | c2 B2 A2 A2 | ^G4 z2 :|[M:4/4] ^G2 | A2 ^G2 A2 B2 | c4 e4 | %8
w: So-|na- te- mi~~un bal-|let- to, Col mio~~a-|mor vo- glio dan-|zar!|Ch'io|pren- do gran pia-|cer Nel|
 d2 c2 c2 B2 | c8 | z2 e2 defd | e2 cc B2 BB | A2 c2 BcdB | c2 AA ^G2 GG | A6 |] %15
w: bal- lo a~dir- vi~~il|ver,|Or- via, che sta- te~~a|far? Co- min- cia- te~~a so-|nar, Or- via che sta- te~~a|far? Co- min- cia- te~~a so-|nar.|
V:3
 A,2 | A,3 A, A,2 C2 | G,3 G, G,2 G,2 | A,2 G,2 F,2 F,2 | E,4 z2 :|[M:4/4] E,2 | A,2 E,2 A,2 G,2 | %7
w: So-|na- te- mi~~un bal-|let- to, Col mio~~a-|mor vo- glio dan-|zar!|Ch'io|pren- do gran pia-|
 C,2 C2 (CB,A,G, | F,2) E,2 D,2 G,2 | C,4 z2 C,2 | C,D,E,C, G,2 D,D, | A,2 A,A, E,2 E,2 | %12
w: cer Nel bal\- * * *|* lo a~~dir- vi~~il|ver, Or-|via, che sta- te~~a far? Co- min-|cia- te~~a so- nar, Or-|
 A,A,A,C G,2 D,D, | A,4 E,2 E,2 | A,6 |] %15
w: via che sta- te~~a far? Co- min-|cia- te~~a so-|nar.|

